!!!OTL: Der Abendgang.
!!!OTL-incipit: Der tag der ist vergangen
!!!ODT: 1586
!!!ARE: Europa, Mitteleuropa, Deutschland
!!!YOR: 1, S. 321
!!    1586 gedruckt in Strassburg
!!!SCT: Q0019C
!!!TXL: @@DE
!!!YEM: Copyright 1995, estate of Helmut Schaffrath.
**kern	**text
*ICvox	*
!! Irregular meter.
*MX	*
*k[b-]	*
4r	.
{4g	Der
=1:	=1:
4b-	tag
4b-	der
4cc	ist
4cc	ver-
=2:	=2:
2dd	-gan-
2dd	-gen...
4r}	.
{4dd	.
=3:	=3:
2ff	.
4ff	.
2ee	.
8ddL	.
8ccJ	.
=4:	=4:
4dd	.
4dd	.
2cc	.
4r}	.
{4ff	.
=5:	=5:
2dd	.
4dd	.
2dd	.
4cc	.
=6:	=6:
2ff	.
2dd	.
4r}	.
{4dd	.
=7:	=7:
4cc	.
4b-	.
4dd	.
4b-	.
=8:	=8:
*lig	*
2a	.
2g	.
*Xlig	*
4r}	.
{4dd	.
=9:	=9:
2dd	.
4dd	.
2cc	.
4a	.
=10:	=10:
4b-	.
4g	.
2f	.
4r}	.
{4cc	.
=11:	=11:
4cc	.
4cc	.
4dd	.
4ee	.
=12:	=12:
2ff	.
2b-	.
4r}	.
{4dd	.
=13:	=13:
4cc	.
4b-	.
4dd	.
2b-	.
8aL	.
8gJ	.
=14:	=14:
2a	.
2g;}	.
==	==
!!!AGN: Ballade, Liebe, Trennung, Tod; geistlich
!! Melodie: geistliche Kontrafaktur.
!!!ONB: ESAC (Essen Associative Code) Database: BALLADE
!!!AMT: irregular
!!!AIN: vox
!!!EED: Helmut Schaffrath
!!!EEV: 1.0
!!@@COMMENT:"Winnenberg, Christö. Reuterldr 1586."
!!@@END:
!!!source: Deutsche Volkslieder mit ihren Melodien. Balladen. Herausgegeben vom Deutschen Volksliedarchiv. Erster Band Balladen. Berlin und Leipzig 1935.
!!!page: 321
!!!ENC: Anna Maria Matuszewska
!!!EEV: 2025/02/14
*-	*-
